**kern	**silbe	**kern	**silbe	**harmony	**phrase	**leadinstrument	**rhyme	**timestamp	**harte
*ICvox	*	*ICvox	*	*M4/4	*	*	*	*	*M4/4
*VRlead	*	*VRharmonize	*	*	*	*	*	*	*
*Hstimme	*	*Nstimme	*	*	*	*	*	*	*
*C:	*	*C:	*	*C:	*	*	*	*	*C:
*M4/4	*	*M4/4	*	*	*	*	*	*	*
*clefG2	*	*clefG2	*	*	*	*	*	*	*
r;	.	r;	.	1r;	.	r	.	0	N.C.
=1	=1	=1	=1	=1	=1	=1	=1	=1	=1
*>Letter>D	*>Letter>D	*>Letter>D	*>Letter>D	*>Letter>D	*>Letter>D	*>Letter>D	*>Letter>D	*>Letter>D	*>Letter>D
*>Label>Intro	*>Label>Intro	*>Label>Intro	*>Label>Intro	*>Label>Intro	*>Label>Intro	*>Label>Intro	*>Label>Intro	*>Label>Intro	*>Label>Intro
1r	.	1r	.	1N	newline	guitar	.	0.09	N.C.
=2	=2	=2	=2	=2	=2	=2	=2	=2	=2
1r	.	1r	.	1N	.	guitar	.	2.308	N.C.
=3	=3	=3	=3	=3	=3	=3	=3	=3	=3
*>Letter>B	*>Letter>B	*>Letter>B	*>Letter>B	*>Letter>B	*>Letter>B	*>Letter>B	*>Letter>B	*>Letter>B	*>Letter>B
*>Label>Verse	*>Label>Verse	*>Label>Verse	*>Label>Verse	*>Label>Verse	*>Label>Verse	*>Label>Verse	*>Label>Verse	*>Label>Verse	*>Label>Verse
1r	.	1r	.	1Cmm	newline	.	.	4.526	C:min7
=4	=4	=4	=4	=4	=4	=4	=4	=4	=4
1r	.	1r	.	1Cmm	.	.	.	6.384	C:min7
=5	=5	=5	=5	=5	=5	=5	=5	=5	=5
1r	.	1r	.	1Cmm	.	.	.	8.242	C:min7
=6	=6	=6	=6	=6	=6	=6	=6	=6	=6
1r	.	1r	.	1Cmm	.	.	.	10.1	C:min7
=7	=7	=7	=7	=7	=7	=7	=7	=7	=7
1r	.	1r	.	1Cmm	.	.	.	11.957	C:min7
=8	=8	=8	=8	=8	=8	=8	=8	=8	=8
1r	.	1r	.	1Cmm	.	.	.	13.815	C:min7
=9	=9	=9	=9	=9	=9	=9	=9	=9	=9
1r	.	1r	.	1Cmm	.	.	.	15.673	C:min7
=10	=10	=10	=10	=10	=10	=10	=10	=10	=10
1r	.	1r	.	1Cmm	.	.	.	17.531	C:min7
=11	=11	=11	=11	=11	=11	=11	=11	=11	=11
1r	.	1r	.	1Cmm	.	.	.	19.389	C:min7
=12	=12	=12	=12	=12	=12	=12	=12	=12	=12
1r	.	1r	.	1Cmm	.	.	.	21.247	C:min7
=13	=13	=13	=13	=13	=13	=13	=13	=13	=13
1r	.	1r	.	1Cmm	.	.	.	23.105	C:min7
=14	=14	=14	=14	=14	=14	=14	=14	=14	=14
1r	.	1r	.	1Cmm	.	.	.	24.963	C:min7
=15	=15	=15	=15	=15	=15	=15	=15	=15	=15
1r	.	1r	.	1Cmm	.	.	.	26.82	C:min7
=16	=16	=16	=16	=16	=16	=16	=16	=16	=16
1r	.	1r	.	1Cmm	.	.	.	28.678	C:min7
=17	=17	=17	=17	=17	=17	=17	=17	=17	=17
1r	.	1r	.	1Cmm	.	.	.	30.536	C:min7
=18	=18	=18	=18	=18	=18	=18	=18	=18	=18
1r	.	2r	.	1Cmm	.	.	.	32.394	C:min7
.	.	4r	.	.	.	.	.	.	.
.	.	8r	.	.	.	.	.	.	.
.	.	[8c	Burn	.	.	.	.	.	.
=19	=19	=19	=19	=19	=19	=19	=19	=19	=19
*>Letter>A	*>Letter>A	*>Letter>A	*>Letter>A	*>Letter>A	*>Letter>A	*>Letter>A	*>Letter>A	*>Letter>A	*>Letter>A
*>Label>Chorus	*>Label>Chorus	*>Label>Chorus	*>Label>Chorus	*>Label>Chorus	*>Label>Chorus	*>Label>Chorus	*>Label>Chorus	*>Label>Chorus	*>Label>Chorus
1r	.	4c]	_	1FM	newline	voice	.	34.252	F:maj
.	.	8A	ba-	.	.	.	.	.	.
.	.	8G	-by	.	.	.	.	.	.
.	.	4c	burn	.	.	.	.	.	.
.	.	4r	.	.	.	.	.	.	.
=20	=20	=20	=20	=20	=20	=20	=20	=20	=20
1r	.	2r	.	2B-M	.	voice	.	36.104	B-:maj
.	.	4r	.	2Gm	.	voice	.	37.03	G:min
.	.	8r	.	.	.	.	.	.	.
.	.	[8c	Burn	.	.	.	.	.	.
=21	=21	=21	=21	=21	=21	=21	=21	=21	=21
1r	.	4c]	_	1CM	.	voice	.	37.956	C:maj
.	.	8A	ba-	.	.	.	.	.	.
.	.	8G	-by	.	.	.	.	.	.
.	.	4c	burn	.	.	.	.	.	.
.	.	4r	.	.	.	.	.	.	.
=22	=22	=22	=22	=22	=22	=22	=22	=22	=22
1r	.	2r	.	1CM	.	voice	.	39.808	C:maj
.	.	4r	.	.	.	.	.	.	.
.	.	8r	.	.	.	.	.	.	.
.	.	[8c	Burn	.	.	.	.	.	.
=23	=23	=23	=23	=23	=23	=23	=23	=23	=23
1r	.	4c]	_	1FM	newline	voice	.	41.66	F:maj
.	.	8A	ba-	.	.	.	.	.	.
.	.	8G	-by	.	.	.	.	.	.
.	.	4c	burn	.	.	.	.	.	.
.	.	4r	.	.	.	.	.	.	.
=24	=24	=24	=24	=24	=24	=24	=24	=24	=24
1r	.	2r	.	2B-M	.	voice	.	43.517	B-:maj
.	.	4r	.	2Gm	.	voice	.	44.445	G:min
.	.	8r	.	.	.	.	.	.	.
.	.	[8c	Burn	.	.	.	.	.	.
=25	=25	=25	=25	=25	=25	=25	=25	=25	=25
1r	.	4c]	_	1CM	.	voice	.	45.374	C:maj
.	.	8A	ba-	.	.	.	.	.	.
.	.	8G	-by	.	.	.	.	.	.
.	.	4c	burn?	.	.	.	.	.	.
.	.	4r	.	.	.	.	.	.	.
=26	=26	=26	=26	=26	=26	=26	=26	=26	=26
1r	.	2r	.	2CM	.	voice	.	47.231	C:maj
.	.	8.ee-	_	4Gm	.	voice	.	48.159	G:min/b3
.	.	8.dd	?	.	.	.	.	.	.
.	.	.	.	4FMM	.	voice	.	48.623	F:maj7/3
.	.	8r	.	.	.	.	.	.	.
=27	=27	=27	=27	=27	=27	=27	=27	=27	=27
*>Letter>B	*>Letter>B	*>Letter>B	*>Letter>B	*>Letter>B	*>Letter>B	*>Letter>B	*>Letter>B	*>Letter>B	*>Letter>B
*>Label>Verse	*>Label>Verse	*>Label>Verse	*>Label>Verse	*>Label>Verse	*>Label>Verse	*>Label>Verse	*>Label>Verse	*>Label>Verse	*>Label>Verse
4g	To	1r	.	1Cmm	newline	.	.	49.088	C:min7
4r	.	.	.	.	.	.	.	.	.
4f	my	.	.	.	.	.	.	.	.
8e-	sup-	.	.	.	.	.	.	.	.
[8c	-rise	.	.	.	.	.	A	.	.
=28	=28	=28	=28	=28	=28	=28	=28	=28	=28
4c]	_	1r	.	1Cmm	.	.	.	50.936	C:min7
8r	.	.	.	.	.	.	.	.	.
16~c	lis-	.	.	.	.	.	.	.	.
16~G	-ten	.	.	.	.	.	.	.	.
4r	.	.	.	.	.	.	.	.	.
8r	.	.	.	.	.	.	.	.	.
8c	One	.	.	.	.	.	.	.	.
=29	=29	=29	=29	=29	=29	=29	=29	=29	=29
8g	hun-	1r	.	1Cmm	.	.	.	52.784	C:min7
8g	-dred	.	.	.	.	.	.	.	.
8r	.	.	.	.	.	.	.	.	.
[8g	stor-	.	.	.	.	.	.	.	.
8g]	_	.	.	.	.	.	.	.	.
8f	-ies	.	.	.	.	.	.	.	.
8e-	_	.	.	.	.	.	.	.	.
[8g	high	.	.	.	.	.	A	.	.
=30	=30	=30	=30	=30	=30	=30	=30	=30	=30
8g]	_	1r	.	1Cmm	.	.	.	54.632	C:min7
8g	_	.	.	.	.	.	.	.	.
16f	_	.	.	.	.	.	.	.	.
16e-	_	.	.	.	.	.	.	.	.
8r	.	.	.	.	.	.	.	.	.
2r	.	.	.	.	.	.	.	.	.
=31	=31	=31	=31	=31	=31	=31	=31	=31	=31
8f#	Pe-	1r	.	1Cmm	.	.	.	56.48	C:min7
[8g	-ople	.	.	.	.	.	.	.	.
4g_	_	.	.	.	.	.	.	.	.
8g]	_	.	.	.	.	.	.	.	.
8f	get-	.	.	.	.	.	.	.	.
8e-	-ting	.	.	.	.	.	.	.	.
[8f	loose	.	.	.	.	.	B	.	.
=32	=32	=32	=32	=32	=32	=32	=32	=32	=32
8f]	_	1r	.	1Cmm	.	.	.	58.328	C:min7
8c	y'all	.	.	.	.	.	.	.	.
4r	.	.	.	.	.	.	.	.	.
4r	.	.	.	.	.	.	.	.	.
8e-	Get-	.	.	.	.	.	.	.	.
8f	-ting	.	.	.	.	.	.	.	.
=33	=33	=33	=33	=33	=33	=33	=33	=33	=33
2g	down	1r	.	1Cmm	.	.	.	60.176	C:min7
8f	on	.	.	.	.	.	.	.	.
8e-	_	.	.	.	.	.	.	.	.
8c	the	.	.	.	.	.	.	.	.
[8c	roof	.	.	.	.	.	B	.	.
=34	=34	=34	=34	=34	=34	=34	=34	=34	=34
16c]	_	1r	.	1Cmm	.	.	.	62.024	C:min7
16r	.	.	.	.	.	.	.	.	.
16r	.	.	.	.	.	.	.	.	.
16B-	ya	.	.	.	.	.	.	.	.
8c	hear?	.	.	.	.	.	.	.	.
8r	.	.	.	.	.	.	.	.	.
2r	.	.	.	.	.	.	.	.	.
=35	=35	=35	=35	=35	=35	=35	=35	=35	=35
4r	.	1r	.	1Cmm	.	.	.	63.873	C:min7
8r	.	.	.	.	.	.	.	.	.
8~g	The	.	.	.	.	.	.	.	.
4cc	folks	.	.	.	.	.	.	.	.
8b-	are	.	.	.	.	.	.	.	.
[8cc	scream-	.	.	.	.	.	.	.	.
=36	=36	=36	=36	=36	=36	=36	=36	=36	=36
8cc]	_	1r	.	1Cmm	.	.	.	65.721	C:min7
8b-	-in'	.	.	.	.	.	.	.	.
4r	.	.	.	.	.	.	.	.	.
2r	.	.	.	.	.	.	.	.	.
=37	=37	=37	=37	=37	=37	=37	=37	=37	=37
2r	.	1r	.	1Cmm	.	.	.	67.569	C:min7
8g	out	.	.	.	.	.	.	.	.
8f	of	.	.	.	.	.	.	.	.
8e-	con-	.	.	.	.	.	.	.	.
[8g	-trol	.	.	.	.	.	C	.	.
=38	=38	=38	=38	=38	=38	=38	=38	=38	=38
8g]	_	1r	.	1Cmm	.	.	.	69.417	C:min7
8g	_	.	.	.	.	.	.	.	.
16f	_	.	.	.	.	.	.	.	.
16e-	_	.	.	.	.	.	.	.	.
8r	.	.	.	.	.	.	.	.	.
8r	.	.	.	.	.	.	.	.	.
8c	It	.	.	.	.	.	.	.	.
8c	was	.	.	.	.	.	.	.	.
[8g	so	.	.	.	.	.	C	.	.
=39	=39	=39	=39	=39	=39	=39	=39	=39	=39
2g]	_	1r	.	1Cmm	.	.	.	71.265	C:min7
8g	en-	.	.	.	.	.	.	.	.
8f#	-ter-	.	.	.	.	.	.	.	.
8r	.	.	.	.	.	.	.	.	.
[8f	-tain-	.	.	.	.	.	.	.	.
=40	=40	=40	=40	=40	=40	=40	=40	=40	=40
8f]	_	1r	.	1Cmm	.	.	.	73.113	C:min7
8g	-in'	.	.	.	.	.	.	.	.
4r	.	.	.	.	.	.	.	.	.
4r	.	.	.	.	.	.	.	.	.
8c	when	.	.	.	.	.	.	.	.
8e-	the	.	.	.	.	.	.	.	.
=41	=41	=41	=41	=41	=41	=41	=41	=41	=41
8g	boo-	1r	.	1Cmm	.	.	.	74.961	C:min7
8f#	-gie	.	.	.	.	.	.	.	.
4r	.	.	.	.	.	.	.	.	.
8f	start-	.	.	.	.	.	.	.	.
8c	-ed	.	.	.	.	.	.	.	.
8c	to	.	.	.	.	.	.	.	.
[8c	explode	.	.	.	.	.	C	.	.
=42	=42	=42	=42	=42	=42	=42	=42	=42	=42
16c]	_	2r	.	1Cmm	.	.	.	76.809	C:min7
16r	.	.	.	.	.	.	.	.	.
8e-	I	.	.	.	.	.	.	.	.
8d	heard	.	.	.	.	.	.	.	.
8c	some-	.	.	.	.	.	.	.	.
8d	-bo-	4r	.	.	.	.	.	.	.
8c	-dy	.	.	.	.	.	.	.	.
4c	say	8r	.	.	.	.	.	.	.
.	.	[8c	Burn	.	.	.	D	.	.
=43	=43	=43	=43	=43	=43	=43	=43	=43	=43
*>Letter>A	*>Letter>A	*>Letter>A	*>Letter>A	*>Letter>A	*>Letter>A	*>Letter>A	*>Letter>A	*>Letter>A	*>Letter>A
*>Label>Chorus	*>Label>Chorus	*>Label>Chorus	*>Label>Chorus	*>Label>Chorus	*>Label>Chorus	*>Label>Chorus	*>Label>Chorus	*>Label>Chorus	*>Label>Chorus
1r	.	4c]	_	1FM	newline	.	.	78.658	F:maj
.	.	8A	ba-	.	.	.	.	.	.
.	.	8G	-by	.	.	.	.	.	.
.	.	4c	burn	.	.	.	D	.	.
.	.	4r	.	.	.	.	.	.	.
=44	=44	=44	=44	=44	=44	=44	=44	=44	=44
8a	Dis-	2r	.	2B-M	.	.	.	80.517	B-:maj
8g	-co	.	.	.	.	.	c	.	.
8f	in-	.	.	.	.	.	.	.	.
8f	-fer-	.	.	.	.	.	D	.	.
8f#	_	4r	.	2Gm	.	.	.	81.447	G:min
8g	-no	.	.	.	.	.	c	.	.
4r	.	8r	.	.	.	.	.	.	.
.	.	[8c	Burn	.	.	.	D	.	.
=45	=45	=45	=45	=45	=45	=45	=45	=45	=45
2r	.	4c]	_	1CM	.	.	.	82.377	C:maj
.	.	8A	ba-	.	.	.	.	.	.
.	.	8G	-by	.	.	.	.	.	.
4r	.	4c	burn	.	.	.	D	.	.
8B-	Burn	4r	.	.	.	.	D	.	.
8B-	the	.	.	.	.	.	.	.	.
=46	=46	=46	=46	=46	=46	=46	=46	=46	=46
8B-	mo-	2r	.	1CM	.	.	.	84.237	C:maj
8c	-ther	.	.	.	.	.	.	.	.
4c	down	.	.	.	.	.	.	.	.
2r	.	4r	.	.	.	.	.	.	.
.	.	8r	.	.	.	.	.	.	.
.	.	[8c	Burn	.	.	.	D	.	.
=47	=47	=47	=47	=47	=47	=47	=47	=47	=47
1r	.	4c]	_	1FM	newline	.	.	86.097	F:maj
.	.	8A	ba-	.	.	.	.	.	.
.	.	8G	-by	.	.	.	.	.	.
.	.	4c	burn	.	.	.	D	.	.
.	.	4r	.	.	.	.	.	.	.
=48	=48	=48	=48	=48	=48	=48	=48	=48	=48
6f	dis-	2r	.	2B-M	.	.	.	87.949	B-:maj
6g-	-co	.	.	.	.	.	c	.	.
6f	in-	.	.	.	.	.	.	.	.
8f	-fer-	4r	.	2Gm	.	.	D	88.875	G:min
[4.g	-no	.	.	.	.	.	c	.	.
.	.	8r	.	.	.	.	.	.	.
.	.	[8c	Burn	.	.	.	D	.	.
=49	=49	=49	=49	=49	=49	=49	=49	=49	=49
8g]	_	4c]	_	1CM	.	.	.	89.801	C:maj
16g	Yeah	.	.	.	.	.	.	.	.
16g-	_	.	.	.	.	.	.	.	.
8f	_	8A	ba-	.	.	.	.	.	.
8r	.	8G	-by	.	.	.	.	.	.
4r	.	4c	burn?	.	.	.	D	.	.
8B-	Burn	4r	.	.	.	.	D	.	.
8B-	the	.	.	.	.	.	.	.	.
=50	=50	=50	=50	=50	=50	=50	=50	=50	=50
8B-	mo-	2r	.	2CM	.	.	.	91.652	C:maj
8c	-ther	.	.	.	.	.	.	.	.
8c	down	.	.	.	.	.	.	.	.
8r	.	.	.	.	.	.	.	.	.
2r	.	8.ee-	_	4Gm	.	.	.	92.578	G:min/b3
.	.	8.dd	?	.	.	.	.	.	.
.	.	.	.	4FMM	.	.	.	93.041	F:maj7/3
.	.	8r	.	.	.	.	.	.	.
=51	=51	=51	=51	=51	=51	=51	=51	=51	=51
*>Letter>B	*>Letter>B	*>Letter>B	*>Letter>B	*>Letter>B	*>Letter>B	*>Letter>B	*>Letter>B	*>Letter>B	*>Letter>B
*>Label>Verse	*>Label>Verse	*>Label>Verse	*>Label>Verse	*>Label>Verse	*>Label>Verse	*>Label>Verse	*>Label>Verse	*>Label>Verse	*>Label>Verse
2.g	Sa-	1r	.	1Cmm	newline	.	.	93.504	C:min7
8f	-tis-	.	.	.	.	.	.	.	.
[8f	-fac-	.	.	.	.	.	(E	.	.
=52	=52	=52	=52	=52	=52	=52	=52	=52	=52
8f]	_	2r	.	1Cmm	.	.	.	95.349	C:min7
8g	-tion	.	.	.	.	.	e)	.	.
4r	.	.	.	.	.	.	.	.	.
2r	.	8b-	Hoo	.	.	.	.	.	.
.	.	4cc	hoo	.	.	.	.	.	.
.	.	[8ee-	hoo	.	.	.	.	.	.
=53	=53	=53	=53	=53	=53	=53	=53	=53	=53
4g	came	4ee-]	_	1Cmm	.	.	.	97.194	C:min7
8f	in	4r	.	.	.	.	.	.	.
8e-	a	.	.	.	.	.	.	.	.
8f	chain	2r	.	.	.	.	.	.	.
8c	_	.	.	.	.	.	.	.	.
8c	re-	.	.	.	.	.	.	.	.
[8c	-ac-	.	.	.	.	.	(E	.	.
=54	=54	=54	=54	=54	=54	=54	=54	=54	=54
8c]	_	2r	.	1Cmm	.	.	.	99.039	C:min7
8B-	-tion	.	.	.	.	.	d)	.	.
4r	.	.	.	.	.	.	.	.	.
2r	.	4r	.	.	.	.	.	.	.
.	.	8r	.	.	.	.	.	.	.
.	.	[8cc	Burn-	.	.	.	.	.	.
=55	=55	=55	=55	=55	=55	=55	=55	=55	=55
4r	.	4cc]	_	1Cmm	.	.	.	100.884	C:min7
8r	.	4a	-in'	.	.	.	.	.	.
8~g	I	.	.	.	.	.	.	.	.
8~cc	could-	2r	.	.	.	.	.	.	.
8~cc	-n't	.	.	.	.	.	.	.	.
8~cc	get	.	.	.	.	.	.	.	.
8~cc	e-	.	.	.	.	.	.	.	.
=56	=56	=56	=56	=56	=56	=56	=56	=56	=56
8~g	-nough	1r	.	1Cmm	.	.	F	102.73	C:min7
8r	.	.	.	.	.	.	.	.	.
4r	.	.	.	.	.	.	.	.	.
4r	.	.	.	.	.	.	.	.	.
8c	so	.	.	.	.	.	.	.	.
8e-	I	.	.	.	.	.	.	.	.
=57	=57	=57	=57	=57	=57	=57	=57	=57	=57
4.g	had	1r	.	1Cmm	.	.	.	104.575	C:min7
8f	to	.	.	.	.	.	.	.	.
8~f	self	.	.	.	.	.	.	.	.
8r	.	.	.	.	.	.	.	.	.
8c	de-	.	.	.	.	.	.	.	.
8c	-struct	.	.	.	.	.	F	.	.
=58	=58	=58	=58	=58	=58	=58	=58	=58	=58
1r	.	2r	.	1Cmm	.	.	.	106.42	C:min7
.	.	8b-	Hoo	.	.	.	.	.	.
.	.	4cc	hoo	.	.	.	.	.	.
.	.	[8ee-	hoo	.	.	.	.	.	.
=59	=59	=59	=59	=59	=59	=59	=59	=59	=59
2r	.	4ee-]	_	1Cmm	.	.	.	108.265	C:min7
.	.	4r	.	.	.	.	.	.	.
8g-	Heat	2r	.	.	.	.	.	.	.
4f	was	.	.	.	.	.	.	.	.
[8g	on	.	.	.	.	.	G	.	.
=60	=60	=60	=60	=60	=60	=60	=60	=60	=60
8g]	_	2r	.	1Cmm	.	.	.	110.11	C:min7
8g	_	.	.	.	.	.	.	.	.
16f	_	.	.	.	.	.	.	.	.
8.e-	_	.	.	.	.	.	.	.	.
4r	.	4r	.	.	.	.	.	.	.
8r	.	8r	.	.	.	.	.	.	.
[8g	ri-	[8cc	Burn-	.	.	.	.	.	.
=61	=61	=61	=61	=61	=61	=61	=61	=61	=61
4.g]	_	4cc]	_	1Cmm	.	.	.	111.955	C:min7
.	.	4a	-in'	.	.	.	.	.	.
8f	-sing	.	.	.	.	.	.	.	.
8f	to	2r	.	.	.	.	.	.	.
8e-	the	.	.	.	.	.	.	.	.
8r	.	.	.	.	.	.	.	.	.
8g	top	.	.	.	.	.	G	.	.
=62	=62	=62	=62	=62	=62	=62	=62	=62	=62
4r	.	1r	.	1Cmm	.	.	.	113.8	C:min7
8~c	Uh	.	.	.	.	.	.	.	.
8r	.	.	.	.	.	.	.	.	.
2r	.	.	.	.	.	.	.	.	.
=63	=63	=63	=63	=63	=63	=63	=63	=63	=63
4r	.	1r	.	1Cmm	.	.	.	115.646	C:min7
8~b-	Ev-	.	.	.	.	.	.	.	.
8~b-	-ery-	.	.	.	.	.	.	.	.
8~b-	-bo-	.	.	.	.	.	.	.	.
8~b-	-dy	.	.	.	.	.	.	.	.
4~b-	going	.	.	.	.	.	.	.	.
=64	=64	=64	=64	=64	=64	=64	=64	=64	=64
8~g	strong	1r	.	1Cmm	.	.	G	117.491	C:min7
8r	.	.	.	.	.	.	.	.	.
4r	.	.	.	.	.	.	.	.	.
4r	.	.	.	.	.	.	.	.	.
8r	.	.	.	.	.	.	.	.	.
[8g	that	.	.	.	.	.	.	.	.
=65	=65	=65	=65	=65	=65	=65	=65	=65	=65
8g]	_	1r	.	1Cmm	.	.	.	119.336	C:min7
8f	is	.	.	.	.	.	.	.	.
8f	when	.	.	.	.	.	.	.	.
8e-	my	.	.	.	.	.	.	.	.
8f	spark	.	.	.	.	.	.	.	.
8r	.	.	.	.	.	.	.	.	.
8c	got	.	.	.	.	.	G	.	.
8r	.	.	.	.	.	.	.	.	.
=66	=66	=66	=66	=66	=66	=66	=66	=66	=66
8c	hot	2r	.	1Cmm	.	.	G	121.181	C:min7
8e-	I	.	.	.	.	.	.	.	.
8d	heard	.	.	.	.	.	.	.	.
8c	some-	.	.	.	.	.	.	.	.
8d	-bo-	4r	.	.	.	.	.	.	.
8c	-dy	.	.	.	.	.	.	.	.
4c	say	8r	.	.	.	.	.	.	.
.	.	[8c	Burn	.	.	.	D	.	.
=67	=67	=67	=67	=67	=67	=67	=67	=67	=67
*>Letter>A	*>Letter>A	*>Letter>A	*>Letter>A	*>Letter>A	*>Letter>A	*>Letter>A	*>Letter>A	*>Letter>A	*>Letter>A
*>Label>Chorus	*>Label>Chorus	*>Label>Chorus	*>Label>Chorus	*>Label>Chorus	*>Label>Chorus	*>Label>Chorus	*>Label>Chorus	*>Label>Chorus	*>Label>Chorus
1r	.	4c]	_	1FM	newline	.	.	123.026	F:maj
.	.	8A	ba-	.	.	.	.	.	.
.	.	8G	-by	.	.	.	.	.	.
.	.	4c	burn	.	.	.	D	.	.
.	.	4r	.	.	.	.	.	.	.
=68	=68	=68	=68	=68	=68	=68	=68	=68	=68
8a	Dis-	2r	.	2B-M	.	.	.	124.883	B-:maj
8g	-co	.	.	.	.	.	c	.	.
8f	in-	.	.	.	.	.	.	.	.
8f	-fer-	.	.	.	.	.	D	.	.
8f#	_	4r	.	2Gm	.	.	.	125.811	G:min
8g	-no	.	.	.	.	.	c	.	.
4r	.	8r	.	.	.	.	.	.	.
.	.	[8c	Burn	.	.	.	D	.	.
=69	=69	=69	=69	=69	=69	=69	=69	=69	=69
4r	.	4c]	_	1CM	.	.	.	126.74	C:maj
4r	.	8A	ba-	.	.	.	.	.	.
.	.	8G	-by	.	.	.	.	.	.
8r	.	4c	burn	.	.	.	D	.	.
8~a	burn	.	.	.	.	.	D	.	.
8~g	_	4r	.	.	.	.	.	.	.
8g	that	.	.	.	.	.	.	.	.
=70	=70	=70	=70	=70	=70	=70	=70	=70	=70
8r	.	2r	.	1CM	.	.	.	128.596	C:maj
8e-	mo-	.	.	.	.	.	.	.	.
8f	-ther	.	.	.	.	.	.	.	.
[8c	down	.	.	.	.	.	.	.	.
8c]	_	4r	.	.	.	.	.	.	.
4c	ya'll	.	.	.	.	.	.	.	.
.	.	8r	.	.	.	.	.	.	.
8r	.	[8c	Burn	.	.	.	D	.	.
=71	=71	=71	=71	=71	=71	=71	=71	=71	=71
1r	.	4c]	_	1FM	newline	.	.	130.453	F:maj
.	.	8A	ba-	.	.	.	.	.	.
.	.	8G	-by	.	.	.	.	.	.
.	.	4c	burn	.	.	.	D	.	.
.	.	4r	.	.	.	.	.	.	.
=72	=72	=72	=72	=72	=72	=72	=72	=72	=72
8f	dis-	2r	.	2B-M	.	.	.	132.304	B-:maj
8f	-co	.	.	.	.	.	c	.	.
8f	in-	.	.	.	.	.	.	.	.
[8f	-fer-	.	.	.	.	.	D	.	.
8f]	_	4r	.	2Gm	.	.	.	133.229	G:min
[4.g	-no	.	.	.	.	.	c	.	.
.	.	8r	.	.	.	.	.	.	.
.	.	[8c	Burn	.	.	.	D	.	.
=73	=73	=73	=73	=73	=73	=73	=73	=73	=73
4.g]	_	4c]	_	1CM	.	.	.	134.155	C:maj
.	.	8A	ba-	.	.	.	.	.	.
16g	Yeah	8G	-by	.	.	.	.	.	.
16f	_	.	.	.	.	.	.	.	.
8r	.	4c	burn?	.	.	.	D	.	.
8r	.	.	.	.	.	.	.	.	.
4r	.	4r	.	.	.	.	.	.	.
=74	=74	=74	=74	=74	=74	=74	=74	=74	=74
8B-	mo-	2r	.	2CM	.	.	.	136.006	C:maj
8c	-ther	.	.	.	.	.	.	.	.
4c	down	.	.	.	.	.	.	.	.
2r	.	8.ee-	_	4Gm	.	.	.	136.931	G:min/b3
.	.	8.dd	?	.	.	.	.	.	.
.	.	.	.	4FMM	.	.	.	137.394	F:maj7/3
.	.	8r	.	.	.	.	.	.	.
=75	=75	=75	=75	=75	=75	=75	=75	=75	=75
*>Letter>C	*>Letter>C	*>Letter>C	*>Letter>C	*>Letter>C	*>Letter>C	*>Letter>C	*>Letter>C	*>Letter>C	*>Letter>C
*>Label>Bridge	*>Label>Bridge	*>Label>Bridge	*>Label>Bridge	*>Label>Bridge	*>Label>Bridge	*>Label>Bridge	*>Label>Bridge	*>Label>Bridge	*>Label>Bridge
1r	.	4r	.	1B-MM	newline	.	.	137.857	B-:maj7
.	.	8B-	Up	.	.	.	.	.	.
.	.	8B-	a-	.	.	.	.	.	.
.	.	4d	-bove	.	.	.	.	.	.
.	.	4f	my	.	.	.	.	.	.
=76	=76	=76	=76	=76	=76	=76	=76	=76	=76
1r	.	2a	head	1B-MM	.	.	.	139.742	B-:maj7
.	.	4a	I	.	.	.	.	.	.
.	.	4a	hear	.	.	.	.	.	.
=77	=77	=77	=77	=77	=77	=77	=77	=77	=77
2r	.	8a	mu-	1CM	.	.	.	141.627	C:maj
.	.	8g	-sic	.	.	.	.	.	.
.	.	8g	in	.	.	.	.	.	.
.	.	8f	the	.	.	.	.	.	.
8r	.	[2g	air	.	.	.	H	.	.
8b-	I	.	.	.	.	.	.	.	.
8cc	love	.	.	.	.	.	.	.	.
[8cc	mu-	.	.	.	.	.	.	.	.
=78	=78	=78	=78	=78	=78	=78	=78	=78	=78
4.cc]	_	2g]	_	1CM	.	.	.	143.511	C:maj
8b-	-sic	.	.	.	.	.	.	.	.
2r	.	2r	.	.	.	.	.	.	.
=79	=79	=79	=79	=79	=79	=79	=79	=79	=79
1r	.	4r	.	1B-MM	newline	.	.	145.396	B-:maj7
.	.	4B-	That	.	.	.	.	.	.
.	.	4d	makes	.	.	.	.	.	.
.	.	4f	me	.	.	.	.	.	.
=80	=80	=80	=80	=80	=80	=80	=80	=80	=80
1r	.	2a	know	1B-MM	.	.	.	147.275	B-:maj7
.	.	4a	there's	.	.	.	H	.	.
.	.	4a	a	.	.	.	.	.	.
=81	=81	=81	=81	=81	=81	=81	=81	=81	=81
1r	.	8a	par-	1CM	.	.	.	149.154	C:maj
.	.	8g	-ty	.	.	.	.	.	.
.	.	8g	some-	.	.	.	.	.	.
.	.	8f	_	.	.	.	.	.	.
.	.	2g	-where	.	.	.	H	.	.
=82	=82	=82	=82	=82	=82	=82	=82	=82	=82
1r	.	1b	_	1Gm	.	.	.	151.032	G:min
=83	=83	=83	=83	=83	=83	=83	=83	=83	=83
1r	.	1r	.	1Gm	.	.	.	152.911	G:min
=84	=84	=84	=84	=84	=84	=84	=84	=84	=84
*>Letter>B	*>Letter>B	*>Letter>B	*>Letter>B	*>Letter>B	*>Letter>B	*>Letter>B	*>Letter>B	*>Letter>B	*>Letter>B
*>Label>Verse	*>Label>Verse	*>Label>Verse	*>Label>Verse	*>Label>Verse	*>Label>Verse	*>Label>Verse	*>Label>Verse	*>Label>Verse	*>Label>Verse
2.cc	Sa-	1r	.	1Cmm	newline	.	.	154.789	C:min7
8b-	-tis-	.	.	.	.	.	.	.	.
[8b-	-fac-	.	.	.	.	.	(E	.	.
=85	=85	=85	=85	=85	=85	=85	=85	=85	=85
8b-]	_	1r	.	1Cmm	.	.	.	156.648	C:min7
8cc	-tion	.	.	.	.	.	d)	.	.
4r	.	.	.	.	.	.	.	.	.
2r	.	.	.	.	.	.	.	.	.
=86	=86	=86	=86	=86	=86	=86	=86	=86	=86
4g	came	1r	.	1Cmm	.	.	.	158.507	C:min7
8f	in	.	.	.	.	.	.	.	.
8e-	a	.	.	.	.	.	.	.	.
8f	chain	.	.	.	.	.	.	.	.
8c	_	.	.	.	.	.	.	.	.
8c	re-	.	.	.	.	.	.	.	.
[8c	-ac-	.	.	.	.	.	(E	.	.
=87	=87	=87	=87	=87	=87	=87	=87	=87	=87
8c]	_	1r	.	1Cmm	.	.	.	160.366	C:min7
8~G	-tion	.	.	.	.	.	d)	.	.
8r	.	.	.	.	.	.	.	.	.
16r	.	.	.	.	.	.	.	.	.
16B-	ya	.	.	.	.	.	.	.	.
8c	hear?	.	.	.	.	.	.	.	.
8r	.	.	.	.	.	.	.	.	.
4r	.	.	.	.	.	.	.	.	.
=88	=88	=88	=88	=88	=88	=88	=88	=88	=88
4r	.	1r	.	1Cmm	.	.	.	162.225	C:min7
8r	.	.	.	.	.	.	.	.	.
8~g	I	.	.	.	.	.	.	.	.
8~cc	could-	.	.	.	.	.	.	.	.
8~cc	-n't	.	.	.	.	.	.	.	.
8~cc	get	.	.	.	.	.	.	.	.
8~cc	e-	.	.	.	.	.	.	.	.
=89	=89	=89	=89	=89	=89	=89	=89	=89	=89
8~g	-nough	1r	.	1Cmm	.	.	F	164.084	C:min7
8r	.	.	.	.	.	.	.	.	.
4r	.	.	.	.	.	.	.	.	.
4r	.	.	.	.	.	.	.	.	.
8c	so	.	.	.	.	.	.	.	.
8e-	I	.	.	.	.	.	.	.	.
=90	=90	=90	=90	=90	=90	=90	=90	=90	=90
4.g	had	1r	.	1Cmm	.	.	.	165.943	C:min7
8f	to	.	.	.	.	.	.	.	.
8~f	self	.	.	.	.	.	.	.	.
8r	.	.	.	.	.	.	.	.	.
8c	de-	.	.	.	.	.	.	.	.
8c	-struct	.	.	.	.	.	F	.	.
=91	=91	=91	=91	=91	=91	=91	=91	=91	=91
8r	.	1r	.	1Cmm	.	.	.	167.802	C:min7
8~c	uh	.	.	.	.	.	.	.	.
4r	.	.	.	.	.	.	.	.	.
2r	.	.	.	.	.	.	.	.	.
=92	=92	=92	=92	=92	=92	=92	=92	=92	=92
4.r	.	1r	.	1Cmm	.	.	.	169.661	C:min7
8c	the	.	.	.	.	.	.	.	.
8g-	Heat	.	.	.	.	.	.	.	.
4f	was	.	.	.	.	.	.	.	.
[8g	on	.	.	.	.	.	G	.	.
=93	=93	=93	=93	=93	=93	=93	=93	=93	=93
8g]	_	1r	.	1Cmm	.	.	.	171.52	C:min7
8g	_	.	.	.	.	.	.	.	.
16f	_	.	.	.	.	.	.	.	.
8.e-	_	.	.	.	.	.	.	.	.
4r	.	.	.	.	.	.	.	.	.
8r	.	.	.	.	.	.	.	.	.
[8g	ri-	.	.	.	.	.	.	.	.
=94	=94	=94	=94	=94	=94	=94	=94	=94	=94
4.g]	_	1r	.	1Cmm	.	.	.	173.379	C:min7
8f	-sing	.	.	.	.	.	.	.	.
8f	to	.	.	.	.	.	.	.	.
8e-	the	.	.	.	.	.	.	.	.
8r	.	.	.	.	.	.	.	.	.
8g	top	.	.	.	.	.	G	.	.
=95	=95	=95	=95	=95	=95	=95	=95	=95	=95
8r	.	1r	.	1Cmm	.	.	.	175.237	C:min7
8~c	Uh	.	.	.	.	.	.	.	.
4r	.	.	.	.	.	.	.	.	.
2r	.	.	.	.	.	.	.	.	.
=96	=96	=96	=96	=96	=96	=96	=96	=96	=96
4r	.	1r	.	1Cmm	.	.	.	177.096	C:min7
8~b-	Ev-	.	.	.	.	.	.	.	.
8~b-	-ery-	.	.	.	.	.	.	.	.
8~b-	-bo-	.	.	.	.	.	.	.	.
8~b-	-dy	.	.	.	.	.	.	.	.
4~b-	going	.	.	.	.	.	.	.	.
=97	=97	=97	=97	=97	=97	=97	=97	=97	=97
8~g	strong	1r	.	1Cmm	.	.	G	178.955	C:min7
8r	.	.	.	.	.	.	.	.	.
4r	.	.	.	.	.	.	.	.	.
4r	.	.	.	.	.	.	.	.	.
8r	.	.	.	.	.	.	.	.	.
[8g	that	.	.	.	.	.	.	.	.
=98	=98	=98	=98	=98	=98	=98	=98	=98	=98
8g]	_	1r	.	1Cmm	.	.	.	180.814	C:min7
8f	is	.	.	.	.	.	.	.	.
8f	when	.	.	.	.	.	.	.	.
8e-	my	.	.	.	.	.	.	.	.
8f	spark	.	.	.	.	.	.	.	.
8r	.	.	.	.	.	.	.	.	.
8c	got	.	.	.	.	.	G	.	.
8r	.	.	.	.	.	.	.	.	.
=99	=99	=99	=99	=99	=99	=99	=99	=99	=99
8c	hot	2r	.	1Cmm	.	.	G	182.673	C:min7
8e-	I	.	.	.	.	.	.	.	.
8d	heard	.	.	.	.	.	.	.	.
8c	some-	.	.	.	.	.	.	.	.
8d	-bo-	4r	.	.	.	.	.	.	.
8c	-dy	.	.	.	.	.	.	.	.
4c	say	8r	.	.	.	.	.	.	.
.	.	[8c	Burn	.	.	.	D	.	.
=100	=100	=100	=100	=100	=100	=100	=100	=100	=100
*>Letter>A	*>Letter>A	*>Letter>A	*>Letter>A	*>Letter>A	*>Letter>A	*>Letter>A	*>Letter>A	*>Letter>A	*>Letter>A
*>Label>Chorus	*>Label>Chorus	*>Label>Chorus	*>Label>Chorus	*>Label>Chorus	*>Label>Chorus	*>Label>Chorus	*>Label>Chorus	*>Label>Chorus	*>Label>Chorus
1r	.	4c]	_	1FM	newline	.	.	184.532	F:maj
.	.	8A	ba-	.	.	.	.	.	.
.	.	8G	-by	.	.	.	.	.	.
.	.	4c	burn	.	.	.	D	.	.
.	.	4r	.	.	.	.	.	.	.
=101	=101	=101	=101	=101	=101	=101	=101	=101	=101
8a	Dis-	2r	.	2B-M	.	.	.	186.431	B-:maj
8g	-co	.	.	.	.	.	c	.	.
8f	in-	.	.	.	.	.	.	.	.
8f	-fer-	.	.	.	.	.	(D	.	.
8f#	_	4r	.	2Gm	.	.	.	187.38	G:min
8g	-no	.	.	.	.	.	c)	.	.
4r	.	8r	.	.	.	.	.	.	.
.	.	[8c	Burn	.	.	.	D	.	.
=102	=102	=102	=102	=102	=102	=102	=102	=102	=102
4r	.	4c]	_	1CM	.	.	.	188.33	C:maj
4r	.	8A	ba-	.	.	.	.	.	.
.	.	8G	-by	.	.	.	.	.	.
8r	.	4c	burn	.	.	.	D	.	.
8~a	burn	.	.	.	.	.	D	.	.
8~g	_	4r	.	.	.	.	.	.	.
8g	that	.	.	.	.	.	.	.	.
=103	=103	=103	=103	=103	=103	=103	=103	=103	=103
8r	.	2r	.	1CM	.	.	.	190.228	C:maj
8e-	mo-	.	.	.	.	.	.	.	.
8f	-ther	.	.	.	.	.	.	.	.
[8c	down	.	.	.	.	.	.	.	.
8c]	_	4r	.	.	.	.	.	.	.
4r	.	.	.	.	.	.	.	.	.
.	.	8r	.	.	.	.	.	.	.
8r	.	[8c	Burn	.	.	.	D	.	.
=104	=104	=104	=104	=104	=104	=104	=104	=104	=104
1r	.	4c]	_	1FM	newline	.	.	192.127	F:maj
.	.	8A	ba-	.	.	.	.	.	.
.	.	8G	-by	.	.	.	.	.	.
.	.	4c	burn	.	.	.	D	.	.
.	.	4r	.	.	.	.	.	.	.
=105	=105	=105	=105	=105	=105	=105	=105	=105	=105
8f	dis-	2r	.	2B-M	.	.	.	194.036	B-:maj
8f	-co	.	.	.	.	.	c	.	.
8f	in-	.	.	.	.	.	.	.	.
[8f	-fer-	.	.	.	.	.	(D	.	.
8f]	_	4r	.	2Gm	.	.	.	194.991	G:min
[4.g	-no	.	.	.	.	.	c)	.	.
.	.	8r	.	.	.	.	.	.	.
.	.	[8c	Burn	.	.	.	D	.	.
=106	=106	=106	=106	=106	=106	=106	=106	=106	=106
8g]	_	4c]	_	1CM	.	.	.	195.945	C:maj
16g	Yeah	.	.	.	.	.	.	.	.
16f	_	.	.	.	.	.	.	.	.
4r	.	8A	ba-	.	.	.	.	.	.
.	.	8G	-by	.	.	.	.	.	.
4r	.	4c	burn	.	.	.	D	.	.
8B-	Burn	4r	.	.	.	.	d	.	.
8B-	the	.	.	.	.	.	.	.	.
=107	=107	=107	=107	=107	=107	=107	=107	=107	=107
8B-	mo-	2r	.	1CM	.	.	.	197.854	C:maj
8c	-ther	.	.	.	.	.	.	.	.
4c	down	.	.	.	.	.	.	.	.
2r	.	4r	.	.	.	.	.	.	.
.	.	8r	.	.	.	.	.	.	.
.	.	[8c	Burn	.	.	.	D	.	.
=108	=108	=108	=108	=108	=108	=108	=108	=108	=108
*>Letter>A	*>Letter>A	*>Letter>A	*>Letter>A	*>Letter>A	*>Letter>A	*>Letter>A	*>Letter>A	*>Letter>A	*>Letter>A
*>Label>Chorus	*>Label>Chorus	*>Label>Chorus	*>Label>Chorus	*>Label>Chorus	*>Label>Chorus	*>Label>Chorus	*>Label>Chorus	*>Label>Chorus	*>Label>Chorus
2r	.	4c]	_	1FM	newline	.	.	199.763	F:maj
.	.	8A	ba-	.	.	.	.	.	.
.	.	8G	-by	.	.	.	.	.	.
8r	.	4c	burn	.	.	.	D	.	.
[4.~cc	Ah	.	.	.	.	.	.	.	.
.	.	4r	.	.	.	.	.	.	.
=109	=109	=109	=109	=109	=109	=109	=109	=109	=109
4.~cc]	_	2r	.	2B-M	.	.	.	201.655	B-:maj
8~cc	hey	.	.	.	.	.	.	.	.
2r	.	4r	.	2Gm	.	.	.	202.6	G:min
.	.	8r	.	.	.	.	.	.	.
.	.	[8c	Burn	.	.	.	D	.	.
=110	=110	=110	=110	=110	=110	=110	=110	=110	=110
2r	.	4c]	_	1CM	.	.	.	203.546	C:maj
.	.	8A	ba-	.	.	.	.	.	.
.	.	8G	-by	.	.	.	.	.	.
4r	.	4c	burn	.	.	.	D	.	.
8B-	Burn	4r	.	.	.	.	D	.	.
8B-	the	.	.	.	.	.	.	.	.
=111	=111	=111	=111	=111	=111	=111	=111	=111	=111
8B-	mo-	2r	.	1CM	.	.	.	205.437	C:maj
8c	-ther	.	.	.	.	.	.	.	.
4c	down	.	.	.	.	.	.	.	.
2r	.	4r	.	.	.	.	.	.	.
.	.	8r	.	.	.	.	.	.	.
.	.	[8c	Burn	.	.	.	D	.	.
=112	=112	=112	=112	=112	=112	=112	=112	=112	=112
1r	.	4c]	_	1FM	newline	guitar voice	.	207.329	F:maj
.	.	8A	ba-	.	.	.	.	.	.
.	.	8G	-by	.	.	.	.	.	.
.	.	4c	burn	.	.	.	D	.	.
.	.	4r	.	.	.	.	.	.	.
=113	=113	=113	=113	=113	=113	=113	=113	=113	=113
8a	Dis-	2r	.	2B-M	.	guitar voice	.	208.958	B-:maj
8g	-co	.	.	.	.	.	c	.	.
8f	in-	.	.	.	.	.	.	.	.
8f	-fer-	.	.	.	.	.	(D	.	.
8f#	_	4r	.	2Gm	.	guitar voice	.	209.773	G:min
8g	-no	.	.	.	.	.	c)	.	.
4r	.	8r	.	.	.	.	.	.	.
.	.	[8c	Burn	.	.	.	D	.	.
=114	=114	=114	=114	=114	=114	=114	=114	=114	=114
1r	.	4c]	_	1CM	.	guitar voice	.	210.587	C:maj
.	.	8A	ba-	.	.	.	.	.	.
.	.	8G	-by	.	.	.	.	.	.
.	.	4c	burn	.	.	.	D	.	.
.	.	4r	.	.	.	.	.	.	.
=115	=115	=115	=115	=115	=115	=115	=115	=115	=115
1r	.	1r	.	1CM	.	guitar voice	.	212.216	C:maj
r;	.	r;	.	1r;	.	r	.	213.846	N.C.
r;	.	r;	.	1r;	.	r	.	217.372	N.C.
*-	*-	*-	*-	*-	*-	*-	*-	*-	*-
!!!BillboardChartDate: 1977/03/12, 1977/04/16
!!!BillboardPeak: 11, 11
!!!BillboardWeeksOnChart: 29, 29
!!!COC: The Trammps
!!!ENC: Nathaniel Condit-Schultz
!!!EST: Awating manual error checking and editing.
!!!OTL: Disco Inferno
!!!RDF**chordsym: original McGill chord annotation + (implied pitch class set, with bass pitch in first position)
!!!RDF**harmony: **recip + pitch class of root + harmonic quality
!!!RDF**leadinstrument: original McGill primary instrumentation annotation
!!!RDF**phrase: newline = linebreak in original McGill transcription
!!!RDF**timestamp: McGill audio timestamp in seconds
!!!RDT: 2017/01/12/
!!!SampleActualRank: 79, 53
!!!SampleID#: 546, 1016
!!!SampleTargetRank: 80, 54
